X:658
T:Mr. Campbell of Lochnell
R:Reel
B:The Athole Collection
M:C|
L:1/8
K:C
G|C2Gc EcGE|c2ec dDDB|1 c2AF EGCE|FDG,G ECC:|2 c2Ac GcEc|
defd ecc||
|:G|ECEG FAFc|ECFE DG,G,F|1 ECEG AFAc|BdGf ecc:|2
EGFA G_Bac|Bagf ecc||

